icons/action/icon_lock_s_white.svg

<?xml version="1.0" encoding="UTF-8"?>
<svg width="18px" height="18px" viewBox="0 0 18 18" version="1.1" xmlns="http://www.w3.org/2000/svg" xmlns:xlink="http://www.w3.org/1999/xlink">
    <!-- Generator: Sketch 48.2 (47327) - http://www.bohemiancoding.com/sketch -->
    <title>icon_lock_s_white</title>
    <desc>Created with Sketch.</desc>
    <defs></defs>
    <g id="Page-1" stroke="none" stroke-width="1" fill="none" fill-rule="evenodd">
        <g id="icon_lock_s_white">
            <polygon id="Shape" points="0 0 18 0 18 18 0 18"></polygon>
            <path d="M14,7 L14,4.5 C14,2.226 11.859,0 9.5,0 L8.5,0 C6.141,0 4,2.226 4,4.5 L4,7 L3.5,7 C2.5,7 2,7.5 2,8.5 L2,15.5 C2,17.028 2.916,18 4.5,18 L13.5,18 C15.084,18 16,17.027 16,15.5 L16,8.5 C16,7.5 15.5,7 14.5,7 L14,7 Z M8.5,1 L9.5,1 C11.36,1 13,2.64 13,4.5 L13,7 L5,7 L5,4.5 C5,2.64 6.64,1 8.5,1 Z M13.5,17 L4.5,17 C3.423,17 3,16.5 3,15.5 L3,8.391 C3,8.175 3.19,8 3.423,8 L14.5,8 C14.733,8 15,8.285 15,8.5 L15,15.5 C15,16.5 14.5,17 13.5,17 Z" id="Shape" fill="#FFFFFF" fill-rule="nonzero" opacity="0.498"></path>
            <path d="M9.5,12.915 L9.5,15 L8.5,15 L8.5,12.915 C7.81122666,12.6714818 7.39806396,11.9671669 7.52160216,11.2471335 C7.64514036,10.5271001 8.26944555,10.0007864 9,10.0007864 C9.73055445,10.0007864 10.3548596,10.5271001 10.4783978,11.2471335 C10.601936,11.9671669 10.1887733,12.6714818 9.5,12.915 Z" id="Shape" fill="#FFFFFF" fill-rule="nonzero" opacity="0.2"></path>
        </g>
    </g>
</svg>

<svg width="18" height="18" viewBox="0 0 18 18" xmlns="http://www.w3.org/2000/svg"><g fill="none" fill-rule="evenodd"><path d="M0 0h18v18H0z"/><path d="M14 7V4.5C14 2.226 11.859 0 9.5 0h-1C6.141 0 4 2.226 4 4.5V7h-.5C2.5 7 2 7.5 2 8.5v7c0 1.528.916 2.5 2.5 2.5h9c1.584 0 2.5-.973 2.5-2.5v-7c0-1-.5-1.5-1.5-1.5H14zM8.5 1h1C11.36 1 13 2.64 13 4.5V7H5V4.5C5 2.64 6.64 1 8.5 1zm5 16h-9C3.423 17 3 16.5 3 15.5V8.391C3 8.175 3.19 8 3.423 8H14.5c.233 0 .5.285.5.5v7c0 1-.5 1.5-1.5 1.5z" fill="#FFF" fill-rule="nonzero" opacity=".498"/><path d="M9.5 12.915V15h-1v-2.085a1.5 1.5 0 1 1 1 0z" fill="#FFF" fill-rule="nonzero" opacity=".2"/></g></svg>
